X: 7
T: Shoe The Donkey
R: mazurka
M: 3/4
L: 1/8
K: Gmaj
Bc|:d2 b2 d2|g4 dg|f2 e2 d2|A3 BAG|F2 A2 d2|f4 fe|d2 cd ed|B4 Bc|d2 b2 d2|g4 dg|f2 e2 d2|A3 BAG|F2 A2 d2|f4 fe|d2 cd ef|g4


Tune 2320	Setting 15686

